X:044
T:Draught,The. TS.044
M:6/8
W:Should have been in 9/8 time
L:1/8
Q:3/8=120
S:Thomas Sands’ MS,1810,Lincolnshire
R:jig
O:England;Lincolnshire
Z:vmp.Ruairidh Greig, 2011
K:C
G|(EF/G/)Ec2G|E2C (EF/G/)E|FDDD2G|(EF/G/)Ec2G|
E2C (EF/G/)F|ECCC2::c|Bcd edc|B2G Bcd|
dBG G2c|Bcd edc|B2G GBc|B(c/d/)Bc2:|]

